www/assets/icons/blind.svg

<svg xmlns="http://www.w3.org/2000/svg" width="24" height="24" viewBox="0 0 24 24" fill='currentColor'><path d="M10.75 5.25a2 2 0 1 0 0-4 2 2 0 0 0 0 4m.63 1.62c-.17-.35-.44-.65-.8-.85a1.98 1.98 0 0 0-1.93-.03v-.01l-5.4 3.07v4.7h2v-3.54l1.5-.85c-.32 1.1-.5 2.24-.5 3.39v5.33l-2.6 3.47 1.6 1.2 3-4 .22-3.54 1.78 2.54v5h2v-6.5l-1.97-2.81c-.04-.52-.14-1.76.45-3.4.75 1.14 1.88 1.98 3.2 2.41l5.95 10.3.87-.5-5.48-9.5h.98v-2c-.49 0-2.88.17-4.08-2.21"/></svg>

<svg width="24" height="24" viewBox="0 0 24 24" xmlns="http://www.w3.org/2000/svg" fill='currentColor'><path d="M10.75 5.25C11.8546 5.25 12.75 4.35457 12.75 3.25C12.75 2.14543 11.8546 1.25 10.75 1.25C9.64543 1.25 8.75 2.14543 8.75 3.25C8.75 4.35457 9.64543 5.25 10.75 5.25Z"/><path d="M11.38 6.87C11.21 6.52 10.94 6.22 10.58 6.02C9.97 5.66 9.24 5.68 8.65 5.99V5.98L3.25 9.05V13.75H5.25V10.21L6.75 9.36C6.43 10.46 6.25 11.6 6.25 12.75V18.08L3.65 21.55L5.25 22.75L8.25 18.75L8.47 15.21L10.25 17.75V22.75H12.25V16.25L10.28 13.44C10.24 12.92 10.14 11.68 10.73 10.04C11.48 11.18 12.61 12.02 13.93 12.45L19.88 22.75L20.75 22.25L15.27 12.75H16.25V10.75C15.76 10.75 13.37 10.92 12.17 8.54"/></svg>
